svg/OSM-icons/historic #61210b °ffffff !label=enhistoric,deHistorisches/19022;historic=manor;!manor..type=;[addr];[contact];!label=enmanor,deHerrenhaus Gutshaus.svg

<svg xmlns="http://www.w3.org/2000/svg" viewBox="0 0 580 580" enable-background="new 0 0 580 580"><path fill="#111" stroke="#eee" stroke-width="3.408" d="m66.28 1.768c-41.34 0-64.57 21.371-64.57 65.04v450.12c0 40.844 20.894 62.23 62.19 62.23h452.02c41.31 0 62.23-20.316 62.23-62.23v-450.12c0-42.601-20.923-65.04-63.52-65.04-.003 0-448.49-.143-448.35 0z"/><path fill="#fff" d="m459.2 396.08v-121.86h21.919v-26.3h-73.64v-63.12h28.06v-26.301h-97.31v-21.916l-26.302-71.89h-47.34l-22.794 71.889v21.917h-97.31v26.301h28.05v63.12h-73.64v26.3h21.917v121.86h-58.737v26.3h35.944v92.93h383.99v-92.93h35.945v-26.3h-58.74m-293.2-39.08h-15v-35h15v35m44-125h-15v-35h15v35m63.07-79h33.857v79h-33.857v-79m24.356 169v35h-15v-35h15m-24.427 35h-15v-35h15v35m33.929 148h-33.857v-79h33.857v79m13.571-148h-15v-35h15v35m63.5-125h-15v-35h15v35m40 125h-15v-35h15v35"/></svg>

<?xml version="1.0" encoding="utf-8"?>
<!-- Generator: Adobe Illustrator 15.0.0, SVG Export Plug-In . SVG Version: 6.00 Build 0)  -->
<!DOCTYPE svg PUBLIC "-//W3C//DTD SVG 1.1//EN" "http://www.w3.org/Graphics/SVG/1.1/DTD/svg11.dtd">
<svg version="1.1" xmlns="http://www.w3.org/2000/svg" xmlns:xlink="http://www.w3.org/1999/xlink" x="0px" y="0px" width="580px"
	 height="580px" viewBox="0 0 580 580" enable-background="new 0 0 580 580" xml:space="preserve">
<g id="Layer_2">
	<g id="g1327">
		<path id="path1329" fill="#111111" stroke="#EEEEEE" stroke-width="3.408" d="M66.275,1.768
			c-41.335,0-64.571,21.371-64.571,65.036v450.123c0,40.844,20.894,62.229,62.192,62.229H515.92
			c41.307,0,62.229-20.316,62.229-62.229V66.804c0-42.601-20.923-65.036-63.522-65.036C514.624,1.768,66.133,1.625,66.275,1.768z"/>
	</g>
</g>
<g id="svg2" inkscape:version="0.46" sodipodi:docname="waste_bin.svg" sodipodi:version="0.32" xmlns:inkscape="http://www.inkscape.org/namespaces/inkscape" xmlns:rdf="http://www.w3.org/1999/02/22-rdf-syntax-ns#" xmlns:dc="http://purl.org/dc/elements/1.1/" xmlns:cc="http://creativecommons.org/ns#" xmlns:svg="http://www.w3.org/2000/svg" xmlns:sodipodi="http://sodipodi.sourceforge.net/DTD/sodipodi-0.dtd" inkscape:output_extension="org.inkscape.output.svg.inkscape">
	<path fill="#FFFFFF" d="M459.2,396.08V274.218h21.919v-26.3h-73.644v-63.121h28.055v-26.301h-97.313V136.58L311.915,64.69h-47.339
		l-22.794,71.889v21.917h-97.313v26.301h28.054v63.121H98.881v26.3h21.917V396.08H62.061v26.3h35.944v92.93h383.99v-92.93h35.945
		v-26.3H459.2z M166,357h-15v-35h15V357z M210,232h-15v-35h15V232z M273.071,153h33.857v79h-33.857V153z M297.427,322v35h-15v-35
		H297.427z M273,357h-15v-35h15V357z M306.929,505h-33.857v-79h33.857V505z M320.5,357h-15v-35h15V357z M384,232h-15v-35h15V232z
		 M424,357h-15v-35h15V357z"/>
</g>
</svg>
